public/img/link-icon-other.svg

<svg width="24" height="24" viewBox="0 0 24 24" fill="none" xmlns="http://www.w3.org/2000/svg">
<path d="M9.321 15.51C8.67149 15.51 8.03197 15.51 7.38246 15.51H6.95278C6.48313 15.53 6.01348 15.44 5.61378 15.29C4.19484 14.76 3.3255 13.49 3.3255 11.97C3.3255 11.05 3.64526 10.25 4.2548 9.60999C4.88433 8.93999 5.64376 8.57999 6.57306 8.50999C6.87284 8.48999 7.16262 8.48999 7.44241 8.48999C7.5923 8.48999 7.73219 8.48999 7.8621 8.48999H9.34099C10.0105 8.48999 10.5501 8.20999 10.8499 7.69999C11.1496 7.18999 11.1496 6.51999 10.8499 5.98999C10.5501 5.44999 10.0405 5.17999 9.34099 5.17999H7.08268C6.54308 5.17999 6.04346 5.22999 5.56382 5.30999C4.28478 5.53999 3.15562 6.10999 2.20634 6.97999C1.23706 7.86999 0.577556 8.94999 0.247803 10.19C-0.141905 11.63 -0.0719569 13.07 0.457646 14.48C0.827369 15.47 1.4469 16.35 2.27628 17.1C3.40544 18.11 4.7944 18.69 6.3932 18.82C6.7929 18.85 7.1926 18.86 7.58231 18.86C7.79215 18.86 8.01198 18.86 8.22183 18.86C8.53159 18.86 8.83137 18.86 9.14114 18.86C9.31101 18.86 9.49088 18.86 9.67074 18.83C10.2803 18.75 10.7299 18.39 10.9398 17.83C11.1596 17.24 11.0897 16.67 10.72 16.18C10.4102 15.75 9.94054 15.54 9.30102 15.54L9.321 15.51Z" fill="white"/>
<path d="M23.8401 10.52C23.5803 9.32001 23.0207 8.26001 22.1814 7.36001C21.1821 6.29001 19.943 5.60001 18.4841 5.31001C17.6847 5.15001 16.8853 5.16001 16.1059 5.17001H15.926C15.7762 5.17001 15.6163 5.17001 15.4564 5.17001C15.1067 5.17001 14.7369 5.16001 14.3772 5.19001C13.5378 5.27001 12.9283 5.97001 12.9383 6.84001C12.9483 7.73001 13.5578 8.40001 14.4272 8.47001C14.7769 8.50001 15.1266 8.49001 15.4564 8.49001C15.6363 8.49001 15.8161 8.49001 15.966 8.49001C16.1459 8.49001 16.3257 8.49001 16.4956 8.49001C16.9153 8.49001 17.265 8.49001 17.6148 8.53001C18.594 8.65001 19.4534 9.16001 20.023 9.95001C20.5926 10.74 20.8124 11.72 20.6125 12.69C20.4327 13.6 19.973 14.32 19.2436 14.85C18.624 15.3 17.9146 15.52 17.0652 15.52H17.0352C16.2458 15.52 15.4564 15.52 14.667 15.52C13.9475 15.52 13.4379 15.8 13.1381 16.33C12.8384 16.86 12.8384 17.54 13.1381 18.05C13.4279 18.55 13.9575 18.83 14.617 18.84H15.2266C15.5363 18.85 15.8561 18.86 16.1759 18.86C16.6655 18.86 17.1651 18.85 17.6548 18.81C18.674 18.73 19.6333 18.45 20.4826 17.97C21.7817 17.24 22.7509 16.18 23.3705 14.83C23.99 13.47 24.1399 12.02 23.8201 10.54L23.8401 10.52Z" fill="white"/>
<path d="M15.0067 13.65C15.3265 13.65 15.6463 13.65 15.966 13.64C16.5256 13.62 17.0052 13.36 17.285 12.92C17.5848 12.44 17.6248 11.83 17.385 11.27C17.1951 10.84 16.7754 10.34 15.8261 10.34H11.7192H10.8099C9.89058 10.34 8.97127 10.33 8.05196 10.35C7.48238 10.36 7.01274 10.61 6.72295 11.05C6.41318 11.52 6.37321 12.14 6.61303 12.7C6.7929 13.13 7.21259 13.65 8.18186 13.65C9.56083 13.65 10.9398 13.65 12.3088 13.65H14.3372C14.5571 13.65 14.7669 13.65 14.9868 13.65H15.0067Z" fill="white"/>
</svg>

<?xml version="1.0" encoding="UTF-8"?>
<svg id="_レイヤー_2" data-name="レイヤー 2" xmlns="http://www.w3.org/2000/svg" viewBox="0 0 24 24">
  <defs>
    <style>
      .cls-1 {
        fill: none;
      }

      .cls-2 {
        fill: #fff;
      }
    </style>
  </defs>
  <g id="_レイヤー_1-2" data-name="レイヤー 1">
    <g>
      <rect class="cls-1" width="24" height="24"/>
      <g>
        <path class="cls-2" d="M9.31,15.51c-.65,0-1.29,0-1.94,0h-.43c-.47,.02-.94-.07-1.34-.22-1.42-.53-2.29-1.8-2.29-3.32,0-.92,.32-1.72,.93-2.36,.63-.67,1.39-1.03,2.32-1.1,.3-.02,.59-.02,.87-.02,.15,0,.29,0,.42,0h1.48c.67,0,1.21-.28,1.51-.79s.3-1.18,0-1.71c-.3-.54-.81-.81-1.51-.81h-2.26c-.54,0-1.04,.05-1.52,.13-1.28,.23-2.41,.8-3.36,1.67-.97,.89-1.63,1.97-1.96,3.21-.39,1.44-.32,2.88,.21,4.29,.37,.99,.99,1.87,1.82,2.62,1.13,1.01,2.52,1.59,4.12,1.72,.4,.03,.8,.04,1.19,.04,.21,0,.43,0,.64,0,.31,0,.61,0,.92,0,.17,0,.35,0,.53-.03,.61-.08,1.06-.44,1.27-1,.22-.59,.15-1.16-.22-1.65-.31-.43-.78-.64-1.42-.64Z"/>
        <path class="cls-2" d="M23.84,10.52c-.26-1.2-.82-2.26-1.66-3.16-1-1.07-2.24-1.76-3.7-2.05-.8-.16-1.6-.15-2.38-.14h-.18c-.15,0-.31,0-.47,0-.35,0-.72-.01-1.08,.02-.84,.08-1.45,.78-1.44,1.65,.01,.89,.62,1.56,1.49,1.63,.35,.03,.7,.02,1.03,.02,.18,0,.36,0,.51,0h0c.18,0,.36,0,.53,0,.42,0,.77,0,1.12,.04,.98,.12,1.84,.63,2.41,1.42,.57,.79,.79,1.77,.59,2.74-.18,.91-.64,1.63-1.37,2.16-.62,.45-1.33,.67-2.18,.67h-.03c-.79,0-1.58,0-2.37,0-.72,0-1.23,.28-1.53,.81-.3,.53-.3,1.21,0,1.72,.29,.5,.82,.78,1.48,.79h.61c.31,.01,.63,.02,.95,.02,.49,0,.99-.01,1.48-.05,1.02-.08,1.98-.36,2.83-.84,1.3-.73,2.27-1.79,2.89-3.14,.62-1.36,.77-2.81,.45-4.29Z"/>
        <path class="cls-2" d="M15,13.65c.32,0,.64,0,.96-.01,.56-.02,1.04-.28,1.32-.72,.3-.48,.34-1.09,.1-1.65-.19-.43-.61-.93-1.56-.93h-4.11s-.91,0-.91,0c-.92,0-1.84-.01-2.76,.01-.57,.01-1.04,.26-1.33,.7-.31,.47-.35,1.09-.11,1.65,.18,.43,.6,.95,1.57,.95h0c1.38,0,2.76,0,4.13,0h2.03c.22,0,.43,0,.65,0Z"/>
      </g>
    </g>
  </g>
</svg>
